file/vodafone.svg

<svg clip-rule="evenodd" fill-rule="evenodd" stroke-linejoin="round" stroke-miterlimit="1.41421" viewBox="0 0 560 400" xmlns="http://www.w3.org/2000/svg"><g fill-rule="nonzero" transform="matrix(1.56589 0 0 1.56589 20.5866 -1238.22)"><path d="m107.407 918.469c0 15.656-12.687 28.349-28.344 28.349-15.656 0-28.349-12.693-28.349-28.349s12.693-28.349 28.349-28.349c15.657 0 28.344 12.693 28.344 28.349" fill="#ee3023"/><path d="m79.287 934.276c-7.786.027-15.89-6.62-15.927-17.297-.026-7.057 3.787-13.854 8.651-17.885 4.75-3.927 11.256-6.453 17.151-6.474.761 0 1.558.062 2.042.229-5.156 1.068-9.26 5.87-9.245 11.312 0 .183.016.375.037.464 8.63 2.104 12.546 7.313 12.572 14.516.021 7.208-5.666 15.104-15.281 15.135" fill="#fff"/><g fill="#ee3023"><path d="m125.714 930.208-8.666-20.682h5.661l5.407 13.735 5.239-13.735h5.406l-8.411 20.682z"/><path d="m153.845 919.761c0-.86-.099-1.678-.302-2.454-.198-.776-.5-1.442-.901-2-.401-.562-.886-1.005-1.459-1.333-.573-.333-1.245-.5-2.015-.5-.771 0-1.448.167-2.016.5-.573.328-1.063.771-1.458 1.333-.401.558-.703 1.224-.901 2-.204.776-.302 1.594-.302 2.454 0 .89.098 1.718.302 2.479.198.76.489 1.427.875 2 .385.573.875 1.026 1.463 1.359.583.328 1.266.495 2.037.495.77 0 1.442-.167 2.015-.495.573-.333 1.058-.786 1.459-1.359s.703-1.24.901-2c.203-.761.302-1.589.302-2.479m5.234.022c0 1.349-.208 2.672-.62 3.974-.416 1.302-1.031 2.464-1.849 3.495-.812 1.031-1.843 1.859-3.088 2.49-1.245.63-2.698.942-4.354.942-1.662 0-3.115-.312-4.355-.942-1.244-.631-2.276-1.459-3.093-2.49-.813-1.031-1.427-2.193-1.844-3.495-.411-1.302-.62-2.625-.62-3.974 0-1.344.208-2.656.62-3.948.417-1.286 1.031-2.437 1.844-3.453.817-1.015 1.849-1.828 3.093-2.443 1.24-.614 2.693-.927 4.355-.927 1.656 0 3.104.313 4.333.927 1.229.615 2.26 1.428 3.089 2.443.833 1.016 1.453 2.167 1.869 3.453.412 1.292.62 2.604.62 3.948"/><path d="m175.063 914.078c-1.026-.401-1.979-.604-2.864-.604-.906 0-1.693.177-2.344.521-.656.343-1.198.807-1.625 1.396-.427.588-.745 1.25-.958 1.984-.214.729-.323 1.485-.323 2.261 0 .859.094 1.682.281 2.473.182.787.469 1.48.854 2.068.381.589.865 1.063 1.448 1.422.584.354 1.276.537 2.073.537.656 0 1.323-.183 2.005-.537.683-.359 1.167-.786 1.453-1.271zm.428 16.13-.214-1.583c-.484.542-1.125 1.021-1.927 1.432-.797.417-1.74.625-2.823.625-1.422 0-2.682-.302-3.76-.901-1.089-.599-2-1.401-2.74-2.401s-1.307-2.161-1.693-3.479c-.38-1.312-.573-2.687-.573-4.12 0-1.343.198-2.661.594-3.948.401-1.286 1.005-2.437 1.818-3.453.818-1.015 1.833-1.828 3.062-2.442 1.224-.615 2.667-.927 4.318-.927 1.083 0 2.255.203 3.51.598v-8.02h5.318v28.619z"/><path d="m195.36 920.511c-.573.03-1.166.083-1.77.151-.605.073-1.178.166-1.724.281-1.157.229-1.954.62-2.401 1.177-.443.562-.667 1.167-.667 1.828 0 .682.25 1.235.755 1.651.505.412 1.214.62 2.135.62.693 0 1.365-.141 2.011-.427.646-.287 1.203-.646 1.661-1.073zm.427 9.682-.208-1.547c-.578.635-1.307 1.135-2.198 1.495-.89.359-1.864.541-2.927.541-.891 0-1.75-.151-2.562-.453-.823-.296-1.547-.729-2.177-1.286-.631-.557-1.141-1.24-1.527-2.057-.39-.818-.583-1.74-.583-2.771 0-1.026.198-1.938.604-2.724.401-.787.943-1.448 1.636-1.995.687-.542 1.479-.984 2.37-1.328.885-.344 1.822-.604 2.796-.776.688-.141 1.443-.245 2.261-.318s1.5-.135 2.047-.193v-.302c0-1.146-.292-1.958-.886-2.448-.588-.484-1.401-.729-2.432-.729-.604 0-1.182.073-1.729.219-.547.141-1.031.318-1.464.531-.432.219-.812.432-1.146.646-.328.214-.593.406-.796.578l-1.761-3.729c.229-.203.578-.443 1.052-.729.474-.287 1.042-.568 1.719-.839.672-.271 1.427-.5 2.271-.687.844-.188 1.755-.281 2.724-.281 1.146 0 2.192.151 3.135.453s1.761.771 2.448 1.416c.682.641 1.219 1.453 1.609 2.443.386.984.579 2.177.579 3.578v13.292z"/><path d="m217.079 906.307c-.172-.083-.505-.208-1.005-.364-.505-.156-1.167-.235-2-.235-.74 0-1.365.224-1.865.667s-.75 1.167-.75 2.167v.984h4.464v4.292h-4.422v16.39h-5.323v-16.39h-2.745v-4.292h2.745v-1.115c0-1.343.172-2.479.516-3.411.343-.927.823-1.687 1.437-2.271.615-.588 1.339-1.021 2.167-1.291.833-.271 1.734-.407 2.708-.407 1.287 0 2.349.12 3.193.365s1.338.406 1.479.495z"/><path d="m231.584 919.761c0-.86-.104-1.678-.302-2.454s-.5-1.442-.901-2c-.401-.562-.885-1.005-1.458-1.333-.573-.333-1.245-.5-2.016-.5s-1.448.167-2.015.5c-.573.328-1.063.771-1.464 1.333-.396.558-.698 1.224-.901 2-.198.776-.297 1.594-.297 2.454 0 .89.099 1.718.297 2.479.203.76.495 1.427.88 2 .386.573.875 1.026 1.459 1.359.588.328 1.27.495 2.041.495s1.443-.167 2.016-.495c.573-.333 1.057-.786 1.458-1.359s.703-1.24.901-2c.198-.761.302-1.589.302-2.479m5.235.022c0 1.349-.209 2.672-.625 3.974-.412 1.302-1.026 2.464-1.844 3.495-.813 1.031-1.844 1.859-3.089 2.49-1.244.63-2.698.942-4.354.942-1.661 0-3.114-.312-4.354-.942-1.245-.631-2.276-1.459-3.094-2.49-.812-1.031-1.427-2.193-1.843-3.495-.417-1.302-.62-2.625-.62-3.974 0-1.344.203-2.656.62-3.948.416-1.286 1.031-2.437 1.843-3.453.818-1.015 1.849-1.828 3.094-2.443 1.24-.614 2.693-.927 4.354-.927 1.656 0 3.104.313 4.334.927 1.229.615 2.26 1.428 3.088 2.443.833 1.016 1.453 2.167 1.865 3.453.416 1.292.625 2.604.625 3.948"/><path d="m253.334 930.208v-11.796c0-1.573-.328-2.792-.984-3.651-.662-.855-1.573-1.287-2.75-1.287-.828 0-1.594.214-2.292.646-.703.427-1.312.901-1.828 1.417v14.671h-5.318v-20.682h4.849l.256 1.63c.833-.682 1.765-1.213 2.812-1.583 1.042-.375 2.094-.557 3.151-.557 1.089 0 2.089.161 3.005.489.917.334 1.703.854 2.36 1.568.661.714 1.166 1.646 1.526 2.786.354 1.146.536 2.521.536 4.12v12.229z"/><path d="m275.209 917.38c-.057-.713-.208-1.338-.453-1.864-.245-.531-.547-.959-.906-1.287-.359-.333-.745-.573-1.162-.734-.421-.156-.843-.234-1.276-.234-.921 0-1.796.343-2.63 1.031-.833.687-1.323 1.713-1.469 3.088zm-8.021 3.818c.115 1.745.657 3.005 1.636 3.776.974.771 2.239 1.162 3.786 1.162.719 0 1.396-.068 2.026-.193.631-.13 1.193-.292 1.683-.495.489-.198.906-.401 1.25-.599.343-.203.599-.391.776-.562l1.416 4.338c-.203.141-.526.333-.968.578-.443.245-.995.469-1.651.688-.657.213-1.433.396-2.318.557-.886.156-1.859.234-2.917.234-1.349 0-2.625-.213-3.844-.64-1.213-.433-2.281-1.099-3.192-2-.917-.901-1.646-2.021-2.188-3.365-.547-1.344-.817-2.948-.817-4.807 0-1.745.25-3.292.75-4.636.5-1.343 1.187-2.474 2.057-3.39.875-.912 1.89-1.615 3.047-2.104 1.161-.485 2.396-.73 3.713-.73 1.318 0 2.532.219 3.651.646 1.115.427 2.078 1.094 2.896 1.995.813.901 1.458 2.068 1.927 3.5.474 1.427.709 3.13.709 5.104v.943z"/></g></g></svg>

<?xml version="1.0" encoding="UTF-8" standalone="no"?>
<!DOCTYPE svg PUBLIC "-//W3C//DTD SVG 1.1//EN" "http://www.w3.org/Graphics/SVG/1.1/DTD/svg11.dtd">
<svg width="100%" height="100%" viewBox="0 0 560 400" version="1.1" xmlns="http://www.w3.org/2000/svg" xmlns:xlink="http://www.w3.org/1999/xlink" xml:space="preserve" xmlns:serif="http://www.serif.com/" style="fill-rule:evenodd;clip-rule:evenodd;stroke-linejoin:round;stroke-miterlimit:1.41421;">
    <g id="g3721" transform="matrix(1.56589,0,0,1.56589,20.5866,-1238.22)">
        <path id="path2333-2" d="M107.407,918.469C107.407,934.125 94.72,946.818 79.063,946.818C63.407,946.818 50.714,934.125 50.714,918.469C50.714,902.813 63.407,890.12 79.063,890.12C94.72,890.12 107.407,902.813 107.407,918.469" style="fill:rgb(238,48,35);fill-rule:nonzero;"/>
        <path id="path2337-8" d="M79.287,934.276C71.501,934.303 63.397,927.656 63.36,916.979C63.334,909.922 67.147,903.125 72.011,899.094C76.761,895.167 83.267,892.641 89.162,892.62C89.923,892.62 90.72,892.682 91.204,892.849C86.048,893.917 81.944,898.719 81.959,904.161C81.959,904.344 81.975,904.536 81.996,904.625C90.626,906.729 94.542,911.938 94.568,919.141C94.589,926.349 88.902,934.245 79.287,934.276" style="fill:white;fill-rule:nonzero;"/>
        <path id="path2339-2" d="M125.714,930.208L117.048,909.526L122.709,909.526L128.116,923.261L133.355,909.526L138.761,909.526L130.35,930.208L125.714,930.208Z" style="fill:rgb(238,48,35);fill-rule:nonzero;"/>
        <path id="path2341-0" d="M153.845,919.761C153.845,918.901 153.746,918.083 153.543,917.307C153.345,916.531 153.043,915.865 152.642,915.307C152.241,914.745 151.756,914.302 151.183,913.974C150.61,913.641 149.938,913.474 149.168,913.474C148.397,913.474 147.72,913.641 147.152,913.974C146.579,914.302 146.089,914.745 145.694,915.307C145.293,915.865 144.991,916.531 144.793,917.307C144.589,918.083 144.491,918.901 144.491,919.761C144.491,920.651 144.589,921.479 144.793,922.24C144.991,923 145.282,923.667 145.668,924.24C146.053,924.813 146.543,925.266 147.131,925.599C147.714,925.927 148.397,926.094 149.168,926.094C149.938,926.094 150.61,925.927 151.183,925.599C151.756,925.266 152.241,924.813 152.642,924.24C153.043,923.667 153.345,923 153.543,922.24C153.746,921.479 153.845,920.651 153.845,919.761M159.079,919.783C159.079,921.132 158.871,922.455 158.459,923.757C158.043,925.059 157.428,926.221 156.61,927.252C155.798,928.283 154.767,929.111 153.522,929.742C152.277,930.372 150.824,930.684 149.168,930.684C147.506,930.684 146.053,930.372 144.813,929.742C143.569,929.111 142.537,928.283 141.72,927.252C140.907,926.221 140.293,925.059 139.876,923.757C139.465,922.455 139.256,921.132 139.256,919.783C139.256,918.439 139.464,917.127 139.876,915.835C140.293,914.549 140.907,913.398 141.72,912.382C142.537,911.367 143.569,910.554 144.813,909.939C146.053,909.325 147.506,909.012 149.168,909.012C150.824,909.012 152.272,909.325 153.501,909.939C154.73,910.554 155.761,911.367 156.59,912.382C157.423,913.398 158.043,914.549 158.459,915.835C158.871,917.127 159.079,918.439 159.079,919.783" style="fill:rgb(238,48,35);fill-rule:nonzero;"/>
        <path id="path2343-6" d="M175.063,914.078C174.037,913.677 173.084,913.474 172.199,913.474C171.293,913.474 170.506,913.651 169.855,913.995C169.199,914.338 168.657,914.802 168.23,915.391C167.803,915.979 167.485,916.641 167.272,917.375C167.058,918.104 166.949,918.86 166.949,919.636C166.949,920.495 167.043,921.318 167.23,922.109C167.412,922.896 167.699,923.589 168.084,924.177C168.465,924.766 168.949,925.24 169.532,925.599C170.116,925.953 170.808,926.136 171.605,926.136C172.261,926.136 172.928,925.953 173.61,925.599C174.293,925.24 174.777,924.813 175.063,924.328L175.063,914.078ZM175.491,930.208L175.277,928.625C174.793,929.167 174.152,929.646 173.35,930.057C172.553,930.474 171.61,930.682 170.527,930.682C169.105,930.682 167.845,930.38 166.767,929.781C165.678,929.182 164.767,928.38 164.027,927.38C163.287,926.38 162.72,925.219 162.334,923.901C161.954,922.589 161.761,921.214 161.761,919.781C161.761,918.438 161.959,917.12 162.355,915.833C162.756,914.547 163.36,913.396 164.173,912.38C164.991,911.365 166.006,910.552 167.235,909.938C168.459,909.323 169.902,909.011 171.553,909.011C172.636,909.011 173.808,909.214 175.063,909.609L175.063,901.589L180.381,901.589L180.381,930.208L175.491,930.208Z" style="fill:rgb(238,48,35);fill-rule:nonzero;"/>
        <path id="path2345-7" d="M195.36,920.511C194.787,920.541 194.194,920.594 193.59,920.662C192.985,920.735 192.412,920.828 191.866,920.943C190.709,921.172 189.912,921.563 189.465,922.12C189.022,922.682 188.798,923.287 188.798,923.948C188.798,924.63 189.048,925.183 189.553,925.599C190.058,926.011 190.767,926.219 191.688,926.219C192.381,926.219 193.053,926.078 193.699,925.792C194.345,925.505 194.902,925.146 195.36,924.719L195.36,920.511ZM195.787,930.193L195.579,928.646C195.001,929.281 194.272,929.781 193.381,930.141C192.491,930.5 191.517,930.682 190.454,930.682C189.563,930.682 188.704,930.531 187.892,930.229C187.069,929.933 186.345,929.5 185.715,928.943C185.084,928.386 184.574,927.703 184.188,926.886C183.798,926.068 183.605,925.146 183.605,924.115C183.605,923.089 183.803,922.177 184.209,921.391C184.61,920.604 185.152,919.943 185.845,919.396C186.532,918.854 187.324,918.412 188.215,918.068C189.1,917.724 190.037,917.464 191.011,917.292C191.699,917.151 192.454,917.047 193.272,916.974C194.09,916.901 194.772,916.839 195.319,916.781L195.319,916.479C195.319,915.333 195.027,914.521 194.433,914.031C193.845,913.547 193.032,913.302 192.001,913.302C191.397,913.302 190.819,913.375 190.272,913.521C189.725,913.662 189.241,913.839 188.808,914.052C188.376,914.271 187.996,914.484 187.662,914.698C187.334,914.912 187.069,915.104 186.866,915.276L185.105,911.547C185.334,911.344 185.683,911.104 186.157,910.818C186.631,910.531 187.199,910.25 187.876,909.979C188.548,909.708 189.303,909.479 190.147,909.292C190.991,909.104 191.902,909.011 192.871,909.011C194.017,909.011 195.063,909.162 196.006,909.464C196.949,909.766 197.767,910.235 198.454,910.88C199.136,911.521 199.673,912.333 200.063,913.323C200.449,914.307 200.642,915.5 200.642,916.901L200.642,930.193L195.787,930.193Z" style="fill:rgb(238,48,35);fill-rule:nonzero;"/>
        <path id="path2347-3" d="M217.079,906.307C216.907,906.224 216.574,906.099 216.074,905.943C215.569,905.787 214.907,905.708 214.074,905.708C213.334,905.708 212.709,905.932 212.209,906.375C211.709,906.818 211.459,907.542 211.459,908.542L211.459,909.526L215.923,909.526L215.923,913.818L211.501,913.818L211.501,930.208L206.178,930.208L206.178,913.818L203.433,913.818L203.433,909.526L206.178,909.526L206.178,908.411C206.178,907.068 206.35,905.932 206.694,905C207.037,904.073 207.517,903.313 208.131,902.729C208.746,902.141 209.47,901.708 210.298,901.438C211.131,901.167 212.032,901.031 213.006,901.031C214.293,901.031 215.355,901.151 216.199,901.396C217.043,901.641 217.537,901.802 217.678,901.891L217.079,906.307Z" style="fill:rgb(238,48,35);fill-rule:nonzero;"/>
        <path id="path2349-9" d="M231.584,919.761C231.584,918.901 231.48,918.083 231.282,917.307C231.084,916.531 230.782,915.865 230.381,915.307C229.98,914.745 229.496,914.302 228.923,913.974C228.35,913.641 227.678,913.474 226.907,913.474C226.136,913.474 225.459,913.641 224.892,913.974C224.319,914.302 223.829,914.745 223.428,915.307C223.032,915.865 222.73,916.531 222.527,917.307C222.329,918.083 222.23,918.901 222.23,919.761C222.23,920.651 222.329,921.479 222.527,922.24C222.73,923 223.022,923.667 223.407,924.24C223.793,924.813 224.282,925.266 224.866,925.599C225.454,925.927 226.136,926.094 226.907,926.094C227.678,926.094 228.35,925.927 228.923,925.599C229.496,925.266 229.98,924.813 230.381,924.24C230.782,923.667 231.084,923 231.282,922.24C231.48,921.479 231.584,920.651 231.584,919.761M236.819,919.783C236.819,921.132 236.61,922.455 236.194,923.757C235.782,925.059 235.168,926.221 234.35,927.252C233.537,928.283 232.506,929.111 231.261,929.742C230.017,930.372 228.563,930.684 226.907,930.684C225.246,930.684 223.793,930.372 222.553,929.742C221.308,929.111 220.277,928.283 219.459,927.252C218.647,926.221 218.032,925.059 217.616,923.757C217.199,922.455 216.996,921.132 216.996,919.783C216.996,918.439 217.199,917.127 217.616,915.835C218.032,914.549 218.647,913.398 219.459,912.382C220.277,911.367 221.308,910.554 222.553,909.939C223.793,909.325 225.246,909.012 226.907,909.012C228.563,909.012 230.011,909.325 231.241,909.939C232.47,910.554 233.501,911.367 234.329,912.382C235.162,913.398 235.782,914.549 236.194,915.835C236.61,917.127 236.819,918.439 236.819,919.783" style="fill:rgb(238,48,35);fill-rule:nonzero;"/>
        <path id="path2351-6" d="M253.334,930.208L253.334,918.412C253.334,916.839 253.006,915.62 252.35,914.761C251.688,913.906 250.777,913.474 249.6,913.474C248.772,913.474 248.006,913.688 247.308,914.12C246.605,914.547 245.996,915.021 245.48,915.537L245.48,930.208L240.162,930.208L240.162,909.526L245.011,909.526L245.267,911.156C246.1,910.474 247.032,909.943 248.079,909.573C249.121,909.198 250.173,909.016 251.23,909.016C252.319,909.016 253.319,909.177 254.235,909.505C255.152,909.839 255.938,910.359 256.595,911.073C257.256,911.787 257.761,912.719 258.121,913.859C258.475,915.005 258.657,916.38 258.657,917.979L258.657,930.208L253.334,930.208Z" style="fill:rgb(238,48,35);fill-rule:nonzero;"/>
        <path id="path2353-4" d="M275.209,917.38C275.152,916.667 275.001,916.042 274.756,915.516C274.511,914.985 274.209,914.557 273.85,914.229C273.491,913.896 273.105,913.656 272.688,913.495C272.267,913.339 271.845,913.261 271.412,913.261C270.491,913.261 269.616,913.604 268.782,914.292C267.949,914.979 267.459,916.005 267.313,917.38L275.209,917.38ZM267.188,921.198C267.303,922.943 267.845,924.203 268.824,924.974C269.798,925.745 271.063,926.136 272.61,926.136C273.329,926.136 274.006,926.068 274.636,925.943C275.267,925.813 275.829,925.651 276.319,925.448C276.808,925.25 277.225,925.047 277.569,924.849C277.912,924.646 278.168,924.458 278.345,924.287L279.761,928.625C279.558,928.766 279.235,928.958 278.793,929.203C278.35,929.448 277.798,929.672 277.142,929.891C276.485,930.104 275.709,930.287 274.824,930.448C273.938,930.604 272.965,930.682 271.907,930.682C270.558,930.682 269.282,930.469 268.063,930.042C266.85,929.609 265.782,928.943 264.871,928.042C263.954,927.141 263.225,926.021 262.683,924.677C262.136,923.333 261.866,921.729 261.866,919.87C261.866,918.125 262.116,916.578 262.616,915.234C263.116,913.891 263.803,912.76 264.673,911.844C265.548,910.932 266.563,910.229 267.72,909.74C268.881,909.255 270.116,909.01 271.433,909.01C272.751,909.01 273.965,909.229 275.084,909.656C276.199,910.083 277.162,910.75 277.98,911.651C278.793,912.552 279.438,913.719 279.907,915.151C280.381,916.578 280.616,918.281 280.616,920.255L280.616,921.198L267.188,921.198Z" style="fill:rgb(238,48,35);fill-rule:nonzero;"/>
    </g>
</svg>
